X: 10502
T: Doogary Crannog
R: slip jig
M: 9/8
K: Dmixolydian
|:DED ABc A2G|E2c cAG FGE|DED ABc A2G|~E3 CEA, GFE|
DED ABc A2G|E2c cAG GAc|d2A BAG A2B|cEG AGE D3:|
|:A2d dcA f2d|A2c cAG e2c|A2d dcA f2g|agf g2e dcG|
A2d dcA f2d|A2c cAG e3|d2A BAG A2B|cEG AGE D3:|

